hosted_logos/coder.svg

<svg xmlns="http://www.w3.org/2000/svg" role="img" viewBox="-2.88 -2.88 149.63 36.88"><path d="M74.7553 13.6347h-4.7364c-.0865-.603-.2631-1.1387-.5299-1.6069-.2667-.4754-.6091-.8797-1.0273-1.2132-.4181-.3335-.9011-.5889-1.449-.7662-.5407-.17739-1.1282-.26608-1.7626-.26608-1.1463 0-2.1447.28028-2.9954.84068-.8507.5534-1.5103 1.3622-1.9789 2.4264-.4686 1.0571-.7029 2.3413-.7029 3.8524 0 1.5538.2343 2.8592.7029 3.9163.4758 1.0571 1.139 1.8553 1.9897 2.3945.8507.5392 1.8347.8088 2.9521.8088.6272 0 1.2076-.0816 1.741-.2448.5407-.1632 1.0201-.4008 1.4383-.713.4181-.3193.7641-.7059 1.0381-1.16.2811-.4541.4758-.972.5839-1.5537l4.7364.0213c-.1226 1.0003-.4289 1.9652-.9192 2.8946-.483.9223-1.1354 1.7488-1.9572 2.4796-.8147.7236-1.7879 1.2983-2.9197 1.724-1.1247.4186-2.3971.6279-3.8173.6279-1.9753 0-3.7415-.4399-5.2987-1.3196-1.5499-.8798-2.7755-2.1533-3.6766-3.8205-.894-1.6673-1.3409-3.6857-1.3409-6.0554 0-2.3767.4542-4.3987 1.3625-6.0659.9084-1.66727 2.1411-2.93722 3.6983-3.80987 1.5572-.87974 3.309-1.31961 5.2554-1.31961 1.2833 0 2.4728.17737 3.5686.5321 1.103.35474 2.0798.87265 2.9305 1.55374.8506.674 1.5427 1.50053 2.0762 2.47964.5407.979.8867 2.1 1.0381 3.3628zm10.6913 14.4839c-1.6798 0-3.1324-.3512-4.358-1.0536-1.2183-.7095-2.1591-1.6956-2.8223-2.9585-.6633-1.2699-.9949-2.7421-.9949-4.4164 0-1.6886.3316-3.1643.9949-4.4271.6632-1.27 1.604-2.2561 2.8223-2.9585 1.2256-.7095 2.6782-1.0642 4.358-1.0642 1.6797 0 3.1287.3547 4.3471 1.0642 1.2255.7024 2.1699 1.6885 2.8331 2.9585.6633 1.2628.9949 2.7385.9949 4.4271 0 1.6743-.3316 3.1465-.9949 4.4164-.6632 1.2629-1.6076 2.249-2.8331 2.9585-1.2184.7024-2.6674 1.0536-4.3471 1.0536zm.0216-3.5119c.7641 0 1.4021-.2129 1.914-.6385.5118-.4328.8975-1.0217 1.1571-1.7666.2667-.745.4001-1.5928.4001-2.5435 0-.9507-.1334-1.7985-.4001-2.5434-.2596-.745-.6453-1.3338-1.1571-1.7666-.5119-.4328-1.1499-.6492-1.914-.6492-.7714 0-1.4202.2164-1.9465.6492-.519.4328-.9119 1.0216-1.1787 1.7666-.2595.7449-.3893 1.5927-.3893 2.5434 0 .9507.1298 1.7985.3893 2.5435.2668.7449.6597 1.3338 1.1787 1.7666.5263.4256 1.1751.6385 1.9465.6385zm17.1848 3.4586c-1.262 0-2.404-.3192-3.4279-.9577-1.0165-.6457-1.8239-1.5928-2.4223-2.8415-.5911-1.2557-.8867-2.7953-.8867-4.6186 0-1.873.3064-3.4303.9192-4.6719.6128-1.2486 1.4274-2.1816 2.4439-2.7988 1.0238-.6244 2.1448-.9365 3.3628-.9365.93 0 1.705.1561 2.325.4682.627.3051 1.132.6882 1.514 1.1494.389.454.685.901.887 1.3409h.14V6.0044h4.596v21.7949h-4.542v-2.6179h-.194c-.216.454-.523.9045-.919 1.3515-.39.4399-.898.8052-1.525 1.0961-.62.2909-1.377.4363-2.271.4363zm1.46-3.6076c.742 0 1.37-.1987 1.881-.596.52-.4044.916-.9684 1.19-1.692.281-.7237.422-1.5715.422-2.5435s-.137-1.8162-.411-2.5328c-.274-.7166-.671-1.2699-1.19-1.6602-.519-.3902-1.15-.5853-1.892-.5853-.757 0-1.395.2022-1.914.6066-.519.4044-.912.9649-1.179 1.6815-.267.7165-.4 1.5466-.4 2.4902 0 .9507.133 1.7914.4 2.5222.274.7236.667 1.2912 1.179 1.7027.519.4044 1.157.6066 1.914.6066zm19.264 3.6609c-1.709 0-3.18-.3406-4.412-1.0217-1.226-.6882-2.17-1.6601-2.833-2.9159-.664-1.2629-.995-2.7563-.995-4.4803 0-1.6814.331-3.1571.995-4.4271.663-1.2699 1.596-2.2596 2.8-2.9691 1.211-.7095 2.632-1.0642 4.261-1.0642 1.096 0 2.116.1738 3.06.5214.952.3406 1.781.855 2.487 1.5431.714.6882 1.269 1.5538 1.666 2.5967.396 1.0358.594 2.249.594 3.6396v1.2451h-14.025v-2.8095h9.689c0-.6527-.144-1.2309-.433-1.7347-.288-.5037-.688-.8974-1.2-1.1812-.504-.2909-1.092-.4363-1.762-.4363-.7 0-1.32.1596-1.86.4788-.534.3122-.952.7343-1.255 1.2664-.303.5251-.458 1.1104-.465 1.756v2.6711c0 .8088.152 1.5077.454 2.0965.31.5889.747 1.0429 1.309 1.3622.562.3193 1.229.4789 2 .4789.512 0 .981-.071 1.406-.2129.425-.1418.79-.3547 1.092-.6385.303-.2838.534-.6314.692-1.0429l4.261.2767c-.216 1.0074-.66 1.8872-1.33 2.6392-.663.745-1.521 1.3267-2.574 1.7453-1.045.4115-2.253.6173-3.622.6173zm10.545-.3193V11.4531h4.466v2.8521h.173c.303-1.0146.811-1.7808 1.525-2.2987.713-.525 1.535-.7875 2.465-.7875.231 0 .48.0142.746.0426.267.0283.501.0674.703.117v4.0227c-.216-.0638-.515-.1206-.897-.1703-.382-.0496-.732-.0744-1.049-.0744-.678 0-1.283.1454-1.817.4363-.526.2838-.944.6811-1.254 1.1919-.303.5108-.454 1.0997-.454 1.7666v9.2479h-4.607zM43.3356 13.5469c-.8848 0-1.4748-.5108-1.4748-1.559V5.96706C41.8608 2.12341 40.2518 0 36.0952 0h-1.9308v4.05867h.59c1.6358 0 2.4135.887 2.4135 2.47284v5.32199c0 2.3115.6972 3.2523 2.2258 3.7361-1.5286.457-2.2258 1.4246-2.2258 3.7361v3.9513c0 1.1019 0 2.1771-.295 3.2791-.2949 1.0214-.7777 1.989-1.4481 2.8222-.3754.4839-.8045.8871-1.2871 1.2634v.5375h1.9307c4.1566 0 5.7656-2.1234 5.7656-5.967v-6.0209c0-1.0751.5631-1.5589 1.4749-1.5589h1.0995v-4.0587h-1.0728v-.0268zm-13.14-7.4178h-5.9533c-.1341 0-.2413-.10751-.2413-.2419v-.45694c0-.13439.1072-.24191.2413-.24191h5.9801c.134 0 .2413.10752.2413.24191v.45694c0 .13439-.1341.2419-.2681.2419zm1.019 5.8056h-4.3443c-.1341 0-.2414-.1076-.2414-.242v-.4569c0-.1343.1073-.2419.2414-.2419h4.3443c.1341 0 .2413.1076.2413.2419v.4569c0 .1076-.1072.242-.2413.242zm1.7162-2.90276h-8.6885c-.1341 0-.2413-.10752-.2413-.24191v-.45694c0-.1344.1072-.2419.2413-.2419h8.6617c.1341 0 .2414.1075.2414.2419v.45694c0 .10751-.0805.24191-.2146.24191zM17.3502 7.44538c.5899 0 1.18.05377 1.7431.18816V6.53151c0-1.55896.8045-2.47284 2.4135-2.47284h.5899V0h-1.9308c-4.1566 0-5.7655 2.12341-5.7655 5.96706v1.98902c.9385-.32254 1.9308-.5107 2.9498-.5107z"/><path d="M34.7542 22.0667c-.429-3.4136-3.0571-6.2627-6.436-6.9078-.9385-.1882-1.8771-.2151-2.7888-.0538-.0269 0-.0269-.0269-.0537-.0269-1.4749-3.091-4.6392-5.1338-8.0718-5.1338-3.4325 0-6.57 1.9891-8.07175 5.0801-.02681 0-.02681.0269-.05364.0269-.96538-.1076-1.93078-.0538-2.89618.1881-3.32525.8063-5.846 3.6017-6.30188 6.9884C.02681 22.5773 0 22.9267 0 23.2493c0 1.0214.69723 1.9622 1.71625 2.0965 1.26038.1883 2.35986-.7794 2.33304-2.0158 0-.1882 0-.4033.02682-.5914.21454-1.7202 1.52854-3.1716 3.24479-3.5749.53634-.1344 1.07267-.1612 1.58219-.0805 1.63581.215 3.24481-.6183 3.94201-2.0697.5095-1.0752 1.3141-2.0159 2.3867-2.5267 1.1799-.5644 2.5208-.645 3.7543-.2149 1.2872.4569 2.2525 1.4245 2.8426 2.634.6167 1.1828.9117 2.016 2.2257 2.1773.5363.0805 2.038.0537 2.6012.0268 1.0995 0 2.199.3763 2.9767 1.1558.5094.5375.8849 1.2096 1.0458 1.9621.2413 1.2096-.0536 2.4191-.7777 3.333-.5095.6451-1.2067 1.1289-1.9844 1.3439-.3755.1076-.7509.1344-1.1263.1344h-5.9265c-1.1798 0-2.1185-.9407-2.1185-2.1234V17.0403c0-.3225-.2681-.5913-.5899-.5913h-.8313c-1.6359.0269-2.9498 1.8547-2.9498 3.7899v7.0692c0 2.0964 1.6893 3.7898 3.7811 3.7898 0 0 9.3054-.0269 9.4394-.0269 2.1453-.2151 4.1297-1.317 5.4705-3.0104 1.3409-1.6396 1.9577-3.7899 1.6895-5.9939z"/></svg>

<svg width="144" height="32" viewBox="0 0 144 32" fill="none" xmlns="http://www.w3.org/2000/svg">
<path d="M74.7553 13.6347H70.0189C69.9324 13.0317 69.7558 12.496 69.489 12.0278C69.2223 11.5524 68.8799 11.1481 68.4617 10.8146C68.0436 10.4811 67.5606 10.2257 67.0127 10.0484C66.472 9.87101 65.8845 9.78232 65.2501 9.78232C64.1038 9.78232 63.1054 10.0626 62.2547 10.623C61.404 11.1764 60.7444 11.9852 60.2758 13.0494C59.8072 14.1065 59.5729 15.3907 59.5729 16.9018C59.5729 18.4556 59.8072 19.761 60.2758 20.8181C60.7516 21.8752 61.4148 22.6734 62.2655 23.2126C63.1162 23.7518 64.1002 24.0214 65.2176 24.0214C65.8448 24.0214 66.4252 23.9398 66.9586 23.7766C67.4993 23.6134 67.9787 23.3758 68.3969 23.0636C68.815 22.7443 69.161 22.3577 69.435 21.9036C69.7161 21.4495 69.9108 20.9316 70.0189 20.3499L74.7553 20.3712C74.6327 21.3715 74.3264 22.3364 73.8361 23.2658C73.3531 24.1881 72.7007 25.0146 71.8789 25.7454C71.0642 26.469 70.091 27.0437 68.9592 27.4694C67.8345 27.888 66.5621 28.0973 65.1419 28.0973C63.1666 28.0973 61.4004 27.6574 59.8432 26.7777C58.2933 25.8979 57.0677 24.6244 56.1666 22.9572C55.2726 21.2899 54.8257 19.2715 54.8257 16.9018C54.8257 14.5251 55.2799 12.5031 56.1882 10.8359C57.0966 9.16863 58.3293 7.89868 59.8865 7.02603C61.4437 6.14629 63.1955 5.70642 65.1419 5.70642C66.4252 5.70642 67.6147 5.88379 68.7105 6.23852C69.8135 6.59326 70.7903 7.11117 71.641 7.79226C72.4916 8.46626 73.1837 9.29279 73.7172 10.2719C74.2579 11.2509 74.6039 12.3719 74.7553 13.6347Z" fill="black"/>
<path d="M85.4466 28.1186C83.7668 28.1186 82.3142 27.7674 81.0886 27.065C79.8703 26.3555 78.9295 25.3694 78.2663 24.1065C77.603 22.8366 77.2714 21.3644 77.2714 19.6901C77.2714 18.0015 77.603 16.5258 78.2663 15.263C78.9295 13.993 79.8703 13.0069 81.0886 12.3045C82.3142 11.595 83.7668 11.2403 85.4466 11.2403C87.1263 11.2403 88.5753 11.595 89.7937 12.3045C91.0192 13.0069 91.9636 13.993 92.6268 15.263C93.2901 16.5258 93.6217 18.0015 93.6217 19.6901C93.6217 21.3644 93.2901 22.8366 92.6268 24.1065C91.9636 25.3694 91.0192 26.3555 89.7937 27.065C88.5753 27.7674 87.1263 28.1186 85.4466 28.1186ZM85.4682 24.6067C86.2323 24.6067 86.8703 24.3938 87.3822 23.9682C87.894 23.5354 88.2797 22.9465 88.5393 22.2016C88.806 21.4566 88.9394 20.6088 88.9394 19.6581C88.9394 18.7074 88.806 17.8596 88.5393 17.1147C88.2797 16.3697 87.894 15.7809 87.3822 15.3481C86.8703 14.9153 86.2323 14.6989 85.4682 14.6989C84.6968 14.6989 84.048 14.9153 83.5217 15.3481C83.0027 15.7809 82.6098 16.3697 82.343 17.1147C82.0835 17.8596 81.9537 18.7074 81.9537 19.6581C81.9537 20.6088 82.0835 21.4566 82.343 22.2016C82.6098 22.9465 83.0027 23.5354 83.5217 23.9682C84.048 24.3938 84.6968 24.6067 85.4682 24.6067Z" fill="black"/>
<path d="M102.653 28.0653C101.391 28.0653 100.249 27.7461 99.2251 27.1076C98.2086 26.4619 97.4012 25.5148 96.8028 24.2661C96.2117 23.0104 95.9161 21.4708 95.9161 19.6475C95.9161 17.7745 96.2225 16.2172 96.8353 14.9756C97.4481 13.727 98.2627 12.794 99.2792 12.1768C100.303 11.5524 101.424 11.2403 102.642 11.2403C103.572 11.2403 104.347 11.3964 104.967 11.7085C105.594 12.0136 106.099 12.3967 106.481 12.8579C106.87 13.3119 107.166 13.7589 107.368 14.1988H107.508V6.0044H112.104V27.7993H107.562V25.1814H107.368C107.152 25.6354 106.845 26.0859 106.449 26.5329C106.059 26.9728 105.551 27.3381 104.924 27.629C104.304 27.9199 103.547 28.0653 102.653 28.0653ZM104.113 24.4577C104.855 24.4577 105.483 24.259 105.994 23.8617C106.514 23.4573 106.91 22.8933 107.184 22.1697C107.465 21.446 107.606 20.5982 107.606 19.6262C107.606 18.6542 107.469 17.81 107.195 17.0934C106.921 16.3768 106.524 15.8235 106.005 15.4332C105.486 15.043 104.855 14.8479 104.113 14.8479C103.356 14.8479 102.718 15.0501 102.199 15.4545C101.68 15.8589 101.287 16.4194 101.02 17.136C100.753 17.8525 100.62 18.6826 100.62 19.6262C100.62 20.5769 100.753 21.4176 101.02 22.1484C101.294 22.872 101.687 23.4396 102.199 23.8511C102.718 24.2555 103.356 24.4577 104.113 24.4577Z" fill="black"/>
<path d="M123.377 28.1186C121.668 28.1186 120.197 27.778 118.965 27.0969C117.739 26.4087 116.795 25.4368 116.132 24.181C115.468 22.9181 115.137 21.4247 115.137 19.7007C115.137 18.0193 115.468 16.5436 116.132 15.2736C116.795 14.0037 117.728 13.014 118.932 12.3045C120.143 11.595 121.564 11.2403 123.193 11.2403C124.289 11.2403 125.309 11.4141 126.253 11.7617C127.205 12.1023 128.034 12.6167 128.74 13.3048C129.454 13.993 130.009 14.8586 130.406 15.9015C130.802 16.9373 131 18.1505 131 19.5411V20.7862H116.975V17.9767H126.664C126.664 17.324 126.52 16.7458 126.231 16.242C125.943 15.7383 125.543 15.3446 125.031 15.0608C124.527 14.7699 123.939 14.6245 123.269 14.6245C122.569 14.6245 121.949 14.7841 121.409 15.1033C120.875 15.4155 120.457 15.8376 120.154 16.3697C119.851 16.8948 119.696 17.4801 119.689 18.1257V20.7968C119.689 21.6056 119.841 22.3045 120.143 22.8933C120.453 23.4822 120.89 23.9362 121.452 24.2555C122.014 24.5748 122.681 24.7344 123.452 24.7344C123.964 24.7344 124.433 24.6634 124.858 24.5215C125.283 24.3797 125.648 24.1668 125.95 23.883C126.253 23.5992 126.484 23.2516 126.642 22.8401L130.903 23.1168C130.687 24.1242 130.243 25.004 129.573 25.756C128.91 26.501 128.052 27.0827 126.999 27.5013C125.954 27.9128 124.746 28.1186 123.377 28.1186Z" fill="black"/>
<path d="M133.922 27.7993V11.4531H138.388V14.3052H138.561C138.864 13.2906 139.372 12.5244 140.086 12.0065C140.799 11.4815 141.621 11.219 142.551 11.219C142.782 11.219 143.031 11.2332 143.297 11.2616C143.564 11.2899 143.798 11.329 144 11.3786V15.4013C143.784 15.3375 143.485 15.2807 143.103 15.231C142.721 15.1814 142.371 15.1566 142.054 15.1566C141.376 15.1566 140.771 15.302 140.237 15.5929C139.711 15.8767 139.293 16.274 138.983 16.7848C138.68 17.2956 138.529 17.8845 138.529 18.5514V27.7993H133.922Z" fill="black"/>
<path d="M43.3356 13.5469C42.4508 13.5469 41.8608 13.0361 41.8608 11.9879V5.96706C41.8608 2.12341 40.2518 0 36.0952 0H34.1644V4.05867H34.7544C36.3902 4.05867 37.1679 4.94567 37.1679 6.53151V11.8535C37.1679 14.165 37.8651 15.1058 39.3937 15.5896C37.8651 16.0466 37.1679 17.0142 37.1679 19.3257C37.1679 20.6428 37.1679 21.9598 37.1679 23.277C37.1679 24.3789 37.1679 25.4541 36.8729 26.5561C36.578 27.5775 36.0952 28.5451 35.4248 29.3783C35.0494 29.8622 34.6203 30.2654 34.1377 30.6417V31.1792H36.0684C40.225 31.1792 41.834 29.0558 41.834 25.2122V19.1913C41.834 18.1162 42.3971 17.6324 43.3089 17.6324H44.4084V13.5737H43.3356V13.5469Z" fill="black"/>
<path d="M30.1956 6.1291H24.2423C24.1082 6.1291 24.001 6.02159 24.001 5.8872V5.43026C24.001 5.29587 24.1082 5.18835 24.2423 5.18835H30.2224C30.3564 5.18835 30.4637 5.29587 30.4637 5.43026V5.8872C30.4637 6.02159 30.3296 6.1291 30.1956 6.1291Z" fill="black"/>
<path d="M31.2146 11.9347H26.8703C26.7362 11.9347 26.6289 11.8271 26.6289 11.6927V11.2358C26.6289 11.1015 26.7362 10.9939 26.8703 10.9939H31.2146C31.3487 10.9939 31.4559 11.1015 31.4559 11.2358V11.6927C31.4559 11.8003 31.3487 11.9347 31.2146 11.9347Z" fill="black"/>
<path d="M32.9308 9.03194H24.2423C24.1082 9.03194 24.001 8.92442 24.001 8.79003V8.33309C24.001 8.19869 24.1082 8.09119 24.2423 8.09119H32.904C33.0381 8.09119 33.1454 8.19869 33.1454 8.33309V8.79003C33.1454 8.89754 33.0649 9.03194 32.9308 9.03194Z" fill="black"/>
<path d="M17.3502 7.44538C17.9401 7.44538 18.5302 7.49915 19.0933 7.63354V6.53151C19.0933 4.97255 19.8978 4.05867 21.5068 4.05867H22.0967V0H20.1659C16.0093 0 14.4004 2.12341 14.4004 5.96706V7.95608C15.3389 7.63354 16.3312 7.44538 17.3502 7.44538Z" fill="black"/>
<path d="M34.7542 22.0667C34.3252 18.6531 31.6971 15.804 28.3182 15.1589C27.3797 14.9707 26.4411 14.9438 25.5294 15.1051C25.5025 15.1051 25.5025 15.0782 25.4757 15.0782C24.0008 11.9872 20.8365 9.9444 17.4039 9.9444C13.9714 9.9444 10.8339 11.9335 9.33215 15.0245C9.30534 15.0245 9.30534 15.0514 9.27851 15.0514C8.31313 14.9438 7.34773 14.9976 6.38233 15.2395C3.05708 16.0458 0.536336 18.8412 0.0804515 22.2279C0.0268136 22.5773 0 22.9267 0 23.2493C0 24.2707 0.697229 25.2115 1.71625 25.3458C2.97663 25.5341 4.07611 24.5664 4.04929 23.33C4.04929 23.1418 4.04929 22.9267 4.07611 22.7386C4.29065 21.0184 5.60465 19.567 7.3209 19.1637C7.85724 19.0293 8.39357 19.0025 8.90309 19.0832C10.5389 19.2982 12.1479 18.4649 12.8451 17.0135C13.3546 15.9383 14.1592 14.9976 15.2318 14.4868C16.4117 13.9224 17.7526 13.8418 18.9861 14.2719C20.2733 14.7288 21.2386 15.6964 21.8287 16.9059C22.4454 18.0887 22.7404 18.9219 24.0544 19.0832C24.5907 19.1637 26.0924 19.1369 26.6556 19.11C27.7551 19.11 28.8546 19.4863 29.6323 20.2658C30.1417 20.8033 30.5172 21.4754 30.6781 22.2279C30.9194 23.4375 30.6245 24.647 29.9004 25.5609C29.3909 26.206 28.6937 26.6898 27.916 26.9048C27.5405 27.0124 27.1651 27.0392 26.7897 27.0392C26.5752 27.0392 26.2802 27.0392 25.9316 27.0392C24.859 27.0392 22.5795 27.0392 20.8632 27.0392C19.6834 27.0392 18.7447 26.0985 18.7447 24.9158V20.9377V17.0403C18.7447 16.7178 18.4766 16.449 18.1548 16.449H17.3235C15.6876 16.4759 14.3737 18.3037 14.3737 20.2389C14.3737 22.1742 14.3737 27.3081 14.3737 27.3081C14.3737 29.4045 16.063 31.0979 18.1548 31.0979C18.1548 31.0979 27.4602 31.071 27.5942 31.071C29.7395 30.8559 31.7239 29.754 33.0647 28.0606C34.4056 26.421 35.0224 24.2707 34.7542 22.0667Z" fill="black"/>
</svg>
